**kern	**kern	**dynam
*part1	*part1	*part1
*staff2	*staff1	*
*I"Piano	*	*
*clefF4	*clefG2	*
*k[b-]	*k[b-]	*
=1	=1	=1
*^	*	*
8AL	8AAL	8fL 8a	.
8A	8AAJ	8f 8a 8ff	.
8A	8AAL	8g 8a 8ee	.
8AJ	16.E^L	8gJ 8a 8cc#X	.
.	32FJJk	.	.
*v	*v	*	*
=	=	=
*	*^	*
8DL 8A	4a 4dd	8fL	.
8D 8A	.	8f	.
8D 8A	8r	8f	.
8DJ 8A	(8ff	8fJ	.
=	=	=	=
8DL 8A	8eeL	8fL	.
8D 8A	8dd	8f	.
8D 8A	8aJ)	8f	.
!	!	!	!LO:DY:a
8DJ 8G	(16.fLL	(8B-J 8c#X	> fp
.	32eJJk	.	.
*	*v	*v	*
=	=	=
8DL 8F	(4A)) 4d	]
8D 8F	.	.
8D 8F	8AL)	.
8DJ 8G	((8B-J 8c#X 8e	>
=	=	=
8DL 8F	(4A)) 4d	]
8D 8F	.	.
8DJ 8F	8A)	.
(8GG 8D 8G	((8d 8b- 8dd	>
=	=	=
*	*^	*
8AAL) 8D 8F	4f) 4a	4A) 4d	]
8AA 8D 8F	.	.	.
8BB- 8D 8G	(16gLL	4d	.
.	16f	.	.
8BB-J 8D 8G	16em	.	.
.	16dJJ)	.	.
*	*v	*v	*
=	=	=
8AAL 8F	8AL 8d	.
8AA 8F	8A 8d	.
8AA 8E	8G 8c#X	.
8AAJ 8E	8GJ 8c#	.
=:|!	=:|!	=:|!
*-	*-	*-
!!!system-decoration: {(s1,s2)}
